X: 1
T: Julianne Johnson - D
R: reel
M: 4/4
L: 1/8
K: Dmaj
|"D"fedf edBA|Bd de d2de|f2 a2 aab2|"A" a8|
|:"G" BABc d3A|BABc d3 A|BABd ed d2|"D"A6 A2|

